; generated by PrusaSlicer 2.2.0+ on 2020-11-14 at 19:22:44 UTC


;
;

;
;
; 

; external perimeters extrusion width = 0.45mm
; perimeters extrusion width = 0.45mm
; infill extrusion width = 0.45mm
; solid infill extrusion width = 0.45mm
; top infill extrusion width = 0.40mm
; support material extrusion width = 0.35mm
; first layer extrusion width = 0.42mm

M73 P0 R127
M201 X1250 Y1250 Z400 E5000 ; sets maximum accelerations, mm/sec^2
M203 X180 Y180 Z12 E80 ; sets maximum feedrates, mm/sec
M204 P1250 R1250 T1250 ; sets acceleration (P, T) and retract acceleration (R), mm/sec^2
M205 X8.00 Y8.00 Z2.00 E10.00 ; sets the jerk limits, mm/sec
M205 S0 T0 ; sets the minimum extruding and travel feed rate, mm/sec
M107
G90 ; use absolute coordinates
M83 ; extruder relative mode
M104 S170 ; set extruder temp for bed leveling
M140 S85 ; set bed temp
M109 R170 ; wait for bed leveling temp
M190 S85 ; wait for bed temp
G28 ; home all without mesh bed level
G29 ; mesh bed leveling 
M104 S240 ; set extruder temp
G92 E0.0
G1 Y-2.0 X179 F2400
G1 Z3 F720
M109 S240 ; wait for extruder temp

; intro line
G1 X170 F1000
G1 Z0.2 F720
G1 X110.0 E8.0 F900
M73 P0 R127
G1 X40.0 E10.0 F700
G92 E0.0

M221 S95 ; set flow
G21 ; set units to millimeters
G90 ; use absolute coordinates
M83 ; use relative distances for extrusion
M900 K0.2 ; Filament gcode
;BEFORE_LAYER_CHANGE
G92 E0.0
;0.2


G1 Z0.200 F9000.000
;AFTER_LAYER_CHANGE
;0.2
G1 E-3.20000 F2400.00000
G1 Z0.400 F9000.000
G1 X51.522 Y71.172
G1 Z0.200
G1 E3.20000 F1500.00000
M204 S800
G1 F1200.000
G1 X128.504 Y71.123 E2.41372
G1 X129.331 Y71.273 E0.02637
G1 X130.055 Y71.702 E0.02637
G1 X130.582 Y72.353 E0.02626
G1 X130.851 Y73.150 E0.02637
G1 X130.876 Y87.065 E0.43629
G1 X129.348 Y106.868 E0.62275
G1 X129.132 Y107.551 E0.02249
G1 X128.721 Y108.139 E0.02249
G1 X128.154 Y108.578 E0.02249
G1 X127.482 Y108.828 E0.02249
G1 X62.500 Y108.877 E2.03746
G1 X61.875 Y108.793 E0.01977
G1 X61.060 Y108.392 E0.02849
G1 X60.458 Y107.717 E0.02837
G1 X49.424 Y88.158 E0.70410
G1 X49.172 Y87.479 E0.02272
G1 X49.124 Y82.920 E0.14294
G1 X49.647 Y73.159 E0.30649
G1 X49.860 Y72.466 E0.02272
G1 X50.271 Y71.869 E0.02272
G1 X50.842 Y71.424 E0.02272
G1 X51.465 Y71.192 E0.02084
M204 S1250
G1 E-2.24000 F2400.00000
G1 F7200.000
G1 X54.345 Y71.190 E-0.91200
G1 E-0.04800 F2400.00000
G1 Z0.400 F9000.000
G1 X87.139 Y99.149
G1 Z0.200
G1 E3.20000 F1500.00000
M204 S800
G1 F1200.000
G1 X87.649 Y98.639 E0.02261
G1 X88.290 Y98.313 E0.02254
G1 X89.000 Y98.200 E0.02255
G1 X89.710 Y98.313 E0.02255
G1 X90.351 Y98.639 E0.02254
G1 X90.861 Y99.149 E0.02261
G1 X91.187 Y99.790 E0.02257
G1 X91.299 Y100.500 E0.02252
G1 X91.187 Y101.210 E0.02252
G1 X90.861 Y101.851 E0.02257
G1 X90.351 Y102.361 E0.02261
G1 X89.710 Y102.687 E0.02254
G1 X89.000 Y102.800 E0.02255
G1 X88.290 Y102.687 E0.02255
G1 X87.649 Y102.361 E0.02254
G1 X87.139 Y101.851 E0.02261
G1 X86.813 Y101.210 E0.02254
G1 X86.700 Y100.500 E0.02255
G1 X86.813 Y99.790 E0.02255
G1 X87.112 Y99.202 E0.02066
M204 S1250
G1 X87.448 Y99.373 F9000.000
M204 S800
G1 F1200.000
G1 X87.873 Y98.948 E0.01885
G1 X88.408 Y98.676 E0.01880
G1 X89.000 Y98.582 E0.01881
G1 X89.592 Y98.676 E0.01881
G1 X90.127 Y98.948 E0.01880
G1 X90.552 Y99.373 E0.01885
G1 X90.824 Y99.908 E0.01882
G1 X90.917 Y100.500 E0.01879
G1 X90.824 Y101.092 E0.01879
G1 X90.552 Y101.627 E0.01882
G1 X90.127 Y102.052 E0.01885
G1 X89.592 Y102.324 E0.01880
G1 X89.000 Y102.418 E0.01881
G1 X88.408 Y102.324 E0.01881
G1 X87.873 Y102.052 E0.01880
G1 X87.448 Y101.627 E0.01885
G1 X87.176 Y101.092 E0.01880
G1 X87.082 Y100.500 E0.01881
G1 X87.176 Y99.908 E0.01881
G1 X87.421 Y99.427 E0.01692
M204 S1250
G1 X87.285 Y99.008 F9000.000
G1 E-2.24000 F2400.00000
G1 F7200.000
G1 X87.873 Y98.948 E-0.20856
G1 X88.408 Y98.676 E-0.18990
G1 X89.000 Y98.582 E-0.18993
G1 X89.592 Y98.676 E-0.18993
G1 X89.969 Y98.868 E-0.13369
G1 E-0.04800 F2400.00000
G1 Z0.400 F9000.000
G1 X82.287 Y101.940
G1 Z0.200
G1 E3.20000 F1500.00000
M204 S800
G1 F1200.000
G1 X82.287 Y97.213 E0.14821
G1 X76.478 Y97.213 E0.18214
G1 X76.039 Y96.797 E0.01895
G1 X75.662 Y96.517 E0.01473
G1 X75.259 Y96.275 E0.01474
G1 X74.834 Y96.074 E0.01475
G1 X74.391 Y95.916 E0.01473
G1 X73.935 Y95.801 E0.01476
G1 X73.469 Y95.733 E0.01475
G1 X73.000 Y95.709 E0.01473
G1 X72.531 Y95.733 E0.01474
G1 X72.065 Y95.801 E0.01475
G1 X71.609 Y95.916 E0.01475
G1 X71.167 Y96.074 E0.01473
G1 X70.742 Y96.275 E0.01474
G1 X70.338 Y96.517 E0.01475
G1 X69.961 Y96.797 E0.01474
G1 X69.522 Y97.213 E0.01895
G1 X63.287 Y97.213 E0.19549
G1 X63.287 Y94.787 E0.07606
G1 X91.713 Y94.787 E0.89127
G1 X91.713 Y105.713 E0.34257
G1 X63.287 Y105.713 E0.89127
G1 X63.287 Y103.287 E0.07606
G1 X69.119 Y103.287 E0.18286
G1 X69.292 Y103.533 E0.00943
G1 X69.613 Y103.887 E0.01498
G1 X69.961 Y104.203 E0.01473
G1 X70.338 Y104.483 E0.01473
G1 X70.741 Y104.725 E0.01475
G1 X71.167 Y104.926 E0.01475
G1 X71.609 Y105.084 E0.01473
G1 X72.059 Y105.197 E0.01454
G1 X72.531 Y105.267 E0.01498
G1 X72.993 Y105.290 E0.01450
G1 X73.468 Y105.267 E0.01490
G1 X73.934 Y105.199 E0.01479
G1 X74.391 Y105.084 E0.01476
G1 X74.833 Y104.926 E0.01473
G1 X75.259 Y104.725 E0.01475
G1 X75.662 Y104.483 E0.01475
G1 X76.039 Y104.203 E0.01473
G1 X76.387 Y103.887 E0.01474
G1 X76.708 Y103.533 E0.01498
G1 X76.881 Y103.287 E0.00943
G1 X79.805 Y103.287 E0.09169
G1 X82.234 Y101.968 E0.08667
M204 S1250
G1 X81.910 Y101.715 F9000.000
M204 S800
G1 F1200.000
G1 X81.910 Y97.590 E0.12935
G1 X76.311 Y97.590 E0.17555
G1 X76.120 Y97.380 E0.00890
G1 X75.800 Y97.089 E0.01357
G1 X75.452 Y96.831 E0.01357
G1 X75.081 Y96.608 E0.01358
G1 X74.689 Y96.423 E0.01358
G1 X74.281 Y96.277 E0.01358
G1 X73.861 Y96.171 E0.01359
G1 X73.432 Y96.109 E0.01359
G1 X73.000 Y96.086 E0.01357
G1 X72.568 Y96.109 E0.01357
G1 X72.139 Y96.171 E0.01359
G1 X71.719 Y96.277 E0.01359
G1 X71.311 Y96.423 E0.01357
G1 X70.920 Y96.608 E0.01358
G1 X70.548 Y96.831 E0.01359
G1 X70.200 Y97.089 E0.01358
G1 X69.880 Y97.380 E0.01357
G1 X69.689 Y97.590 E0.00890
G1 X62.910 Y97.590 E0.21255
G1 X62.910 Y94.410 E0.09971
G1 X92.090 Y94.410 E0.91492
G1 X92.090 Y106.090 E0.36622
G1 X62.910 Y106.090 E0.91492
G1 X62.910 Y102.910 E0.09971
G1 X69.315 Y102.910 E0.20083
G1 X69.587 Y103.297 E0.01484
G1 X69.880 Y103.620 E0.01366
G1 X70.200 Y103.911 E0.01357
G1 X70.548 Y104.169 E0.01357
G1 X70.919 Y104.392 E0.01359
G1 X71.311 Y104.577 E0.01358
G1 X71.719 Y104.723 E0.01357
G1 X72.133 Y104.827 E0.01338
G1 X72.568 Y104.892 E0.01380
G1 X72.994 Y104.912 E0.01336
G1 X73.432 Y104.892 E0.01375
G1 X73.861 Y104.829 E0.01360
G1 X74.281 Y104.723 E0.01359
G1 X74.689 Y104.577 E0.01357
G1 X75.081 Y104.392 E0.01358
G1 X75.452 Y104.169 E0.01359
G1 X75.799 Y103.911 E0.01356
G1 X76.120 Y103.620 E0.01358
G1 X76.413 Y103.297 E0.01367
G1 X76.685 Y102.910 E0.01484
G1 X79.709 Y102.910 E0.09483
G1 X81.857 Y101.744 E0.07663
M204 S1250
G1 X82.309 Y101.685 F9000.000
G1 E-2.24000 F2400.00000
G1 F7200.000
G1 X81.894 Y98.864 E-0.91200
G1 E-0.04800 F2400.00000
G1 Z0.400 F9000.000
G1 X82.342 Y97.100
G1 Z0.200
G1 E3.20000 F1500.00000
M204 S800
G1 F1200.000
G1 X80.312 Y95.070 E0.09024
G1 X79.778 Y95.070 E0.01681
G1 X81.638 Y96.930 E0.08270
G1 X81.103 Y96.930 E0.01681
G1 X79.243 Y95.070 E0.08270
G1 X78.708 Y95.070 E0.01681
G1 X80.569 Y96.930 E0.08270
G1 X80.034 Y96.930 E0.01681
G1 X78.174 Y95.070 E0.08270
G1 X77.639 Y95.070 E0.01681
G1 X79.499 Y96.930 E0.08270
G1 X78.965 Y96.930 E0.01681
G1 X77.104 Y95.070 E0.08270
G1 X76.570 Y95.070 E0.01681
G1 X78.430 Y96.930 E0.08270
G1 X77.895 Y96.930 E0.01681
G1 X76.035 Y95.070 E0.08270
G1 X75.501 Y95.070 E0.01681
G1 X77.361 Y96.930 E0.08270
G1 X76.826 Y96.930 E0.01681
G1 X74.966 Y95.070 E0.08270
G1 X74.431 Y95.070 E0.01681
G1 X75.382 Y96.021 E0.04227
G1 X74.942 Y95.812 E0.01531
G1 X74.471 Y95.645 E0.01570
G1 X73.897 Y95.070 E0.02555
G1 X73.362 Y95.070 E0.01681
G1 X73.785 Y95.493 E0.01883
G1 X73.497 Y95.451 E0.00916
G1 X73.193 Y95.436 E0.00957
G1 X72.827 Y95.070 E0.01626
G1 X72.293 Y95.070 E0.01681
G1 X72.666 Y95.443 E0.01658
G1 X72.186 Y95.498 E0.01518
G1 X71.758 Y95.070 E0.01901
G1 X71.223 Y95.070 E0.01681
G1 X71.744 Y95.590 E0.02314
G1 X71.333 Y95.714 E0.01349
G1 X70.689 Y95.070 E0.02865
G1 X70.154 Y95.070 E0.01681
G1 X70.948 Y95.864 E0.03531
G1 X70.587 Y96.038 E0.01259
G1 X69.619 Y95.070 E0.04303
G1 X69.085 Y95.070 E0.01681
G1 X70.253 Y96.238 E0.05194
G1 X69.940 Y96.460 E0.01205
G1 X68.550 Y95.070 E0.06180
G1 X68.016 Y95.070 E0.01681
G1 X69.649 Y96.703 E0.07261
G1 X69.409 Y96.930 E0.01037
G1 X69.341 Y96.930 E0.00214
G1 X67.481 Y95.070 E0.08270
G1 X66.946 Y95.070 E0.01681
G1 X68.806 Y96.930 E0.08270
G1 X68.272 Y96.930 E0.01681
G1 X66.412 Y95.070 E0.08270
G1 X65.877 Y95.070 E0.01681
G1 X67.737 Y96.930 E0.08270
G1 X67.203 Y96.930 E0.01681
G1 X65.342 Y95.070 E0.08270
G1 X64.808 Y95.070 E0.01681
G1 X66.668 Y96.930 E0.08270
G1 X66.133 Y96.930 E0.01681
G1 X64.273 Y95.070 E0.08270
G1 X63.738 Y95.070 E0.01681
G1 X65.599 Y96.930 E0.08270
G1 X65.064 Y96.930 E0.01681
G1 X63.570 Y95.436 E0.06642
G1 X63.570 Y95.971 E0.01681
G1 X64.529 Y96.930 E0.04265
G1 X63.995 Y96.930 E0.01681
G1 X63.400 Y96.336 E0.02643
M204 S1250
G1 E-2.24000 F2400.00000
G1 F7200.000
G1 X63.995 Y96.930 E-0.26624
G1 X64.529 Y96.930 E-0.16930
G1 X63.570 Y95.971 E-0.42968
G1 X63.570 Y95.823 E-0.04677
G1 E-0.04800 F2400.00000
G1 Z0.400 F9000.000
G1 X63.400 Y104.785
G1 Z0.200
G1 E3.20000 F1500.00000
M204 S800
G1 F1200.000
G1 X64.045 Y105.430 E0.03049
G1 X64.614 Y105.430 E0.01899
G1 X63.570 Y104.386 E0.04933
G1 X63.570 Y103.818 E0.01899
G1 X65.182 Y105.430 E0.07619
G1 X65.750 Y105.430 E0.01899
G1 X63.890 Y103.570 E0.08792
G1 X64.458 Y103.570 E0.01899
G1 X66.319 Y105.430 E0.08792
G1 X66.887 Y105.430 E0.01899
G1 X65.027 Y103.570 E0.08792
G1 X65.595 Y103.570 E0.01899
G1 X67.455 Y105.430 E0.08792
G1 X68.024 Y105.430 E0.01899
G1 X66.164 Y103.570 E0.08792
G1 X66.732 Y103.570 E0.01899
G1 X68.592 Y105.430 E0.08792
G1 X69.161 Y105.430 E0.01899
G1 X67.300 Y103.570 E0.08792
G1 X67.869 Y103.570 E0.01899
G1 X69.729 Y105.430 E0.08791
G1 X70.297 Y105.430 E0.01899
G1 X68.437 Y103.570 E0.08791
G1 X68.972 Y103.570 E0.01788
G1 X69.070 Y103.710 E0.00573
G1 X69.413 Y104.087 E0.01702
G1 X69.781 Y104.422 E0.01662
G1 X70.077 Y104.642 E0.01233
G1 X71.035 Y105.600 E0.04528
M204 S1250
G1 X71.406 Y105.212 F9000.000
M204 S800
G1 F1200.000
G1 X71.510 Y105.391 E0.00317
G1 X72.004 Y105.452 E0.00762
M204 S1250
M204 S800
G1 X72.926 Y105.500 E0.00532
M204 S1250
G1 X73.063 Y105.500 F9000.000
M204 S800
G1 F1200.000
G1 X73.491 Y105.490 E0.00247
M204 S1250
M204 S800
G1 X73.736 Y105.472 E0.00215
M204 S1250
M204 S800
G1 X73.989 Y105.453 E0.00300
M204 S1250
M204 S800
G1 X74.152 Y105.433 E0.00250
M204 S1250
M204 S800
G1 X74.315 Y105.413 E0.00305
M204 S1250
M204 S800
G1 X74.490 Y105.391 E0.00392
G1 X74.594 Y105.212 E0.00460
M204 S1250
G1 X75.338 Y105.600 F9000.000
M204 S800
G1 F1200.000
G1 X75.046 Y105.308 E0.01298
G1 X75.115 Y105.189 E0.00432
G1 X75.036 Y105.143 E0.00288
G1 X75.294 Y105.021 E0.00895
G1 X75.703 Y105.430 E0.01818
G1 X76.237 Y105.430 E0.01681
G1 X75.636 Y104.829 E0.02674
G1 X75.958 Y104.616 E0.01213
G1 X76.772 Y105.430 E0.03620
G1 X77.306 Y105.430 E0.01681
G1 X76.260 Y104.384 E0.04650
G1 X76.541 Y104.130 E0.01190
G1 X77.841 Y105.430 E0.05781
G1 X78.376 Y105.430 E0.01681
G1 X76.799 Y103.854 E0.07008
G1 X77.028 Y103.570 E0.01146
G1 X77.050 Y103.570 E0.00070
G1 X78.910 Y105.430 E0.08270
G1 X79.445 Y105.430 E0.01681
G1 X77.585 Y103.570 E0.08270
G1 X78.119 Y103.570 E0.01681
G1 X79.980 Y105.430 E0.08270
G1 X80.514 Y105.430 E0.01681
G1 X78.654 Y103.570 E0.08270
G1 X79.189 Y103.570 E0.01681
G1 X81.049 Y105.430 E0.08270
G1 X81.584 Y105.430 E0.01681
G1 X79.723 Y103.570 E0.08270
G1 X79.877 Y103.570 E0.00483
G1 X80.124 Y103.436 E0.00883
G1 X82.118 Y105.430 E0.08866
G1 X82.653 Y105.430 E0.01681
G1 X80.470 Y103.248 E0.09702
G1 X80.817 Y103.060 E0.01239
G1 X83.188 Y105.430 E0.10539
G1 X83.722 Y105.430 E0.01681
G1 X81.164 Y102.871 E0.11375
G1 X81.510 Y102.683 E0.01239
G1 X84.257 Y105.430 E0.12211
G1 X84.791 Y105.430 E0.01681
G1 X81.857 Y102.495 E0.13047
G1 X82.203 Y102.307 E0.01239
G1 X85.326 Y105.430 E0.13884
G1 X85.861 Y105.430 E0.01681
G1 X82.550 Y102.119 E0.14720
G1 X82.570 Y102.108 E0.00072
G1 X82.570 Y101.605 E0.01582
G1 X86.395 Y105.430 E0.17007
G1 X86.930 Y105.430 E0.01681
G1 X82.570 Y101.070 E0.19384
G1 X82.570 Y100.535 E0.01681
G1 X87.465 Y105.430 E0.21760
G1 X87.999 Y105.430 E0.01681
G1 X82.570 Y100.001 E0.24137
G1 X82.570 Y99.466 E0.01681
G1 X88.534 Y105.430 E0.26514
G1 X89.069 Y105.430 E0.01681
G1 X82.570 Y98.931 E0.28891
G1 X82.570 Y98.397 E0.01681
G1 X89.773 Y105.600 E0.32022
M204 S1250
G1 E-2.24000 F2400.00000
G1 F7200.000
G1 X87.737 Y103.563 E-0.91200
G1 E-0.04800 F2400.00000
G1 Z0.400 F9000.000
G1 X91.400 Y99.429
G1 Z0.200
G1 E3.20000 F1500.00000
M204 S800
G1 F1200.000
G1 X91.446 Y99.720 E0.00210
G1 X91.501 Y100.424 E0.00504
M204 S1250
G1 X91.501 Y100.576 F9000.000
M204 S800
G1 F1200.000
G1 X91.483 Y100.811 E0.00168
M204 S1250
M204 S800
G1 X91.464 Y101.046 E0.00237
M204 S1250
M204 S800
G1 X91.446 Y101.280 E0.00307
M204 S1250
M204 S800
G1 X91.400 Y101.571 E0.00402
M204 S1250
G1 X91.168 Y101.648 F9000.000
M204 S800
G1 F1200.000
G1 X91.430 Y101.911 E0.01166
G1 X91.430 Y102.445 E0.01681
G1 X91.048 Y102.064 E0.01697
G1 X90.781 Y102.331 E0.01188
G1 X91.430 Y102.980 E0.02885
G1 X91.430 Y103.514 E0.01681
G1 X90.512 Y102.596 E0.04081
G1 X90.158 Y102.777 E0.01250
G1 X91.430 Y104.049 E0.05657
G1 X91.430 Y104.584 E0.01681
G1 X89.803 Y102.957 E0.07233
G1 X89.343 Y103.032 E0.01464
G1 X91.430 Y105.118 E0.09277
G1 X91.430 Y105.430 E0.00980
G1 X91.207 Y105.430 E0.00701
G1 X88.838 Y103.060 E0.10534
G1 X88.201 Y102.959 E0.02025
G1 X90.673 Y105.430 E0.10985
G1 X90.138 Y105.430 E0.01681
G1 X82.570 Y97.862 E0.33644
G1 X82.570 Y97.327 E0.01681
G1 X86.541 Y101.299 E0.17654
G1 X86.440 Y100.662 E0.02025
G1 X80.847 Y95.070 E0.24862
G1 X81.382 Y95.070 E0.01681
G1 X86.468 Y100.157 E0.22614
G1 X86.543 Y99.697 E0.01464
G1 X81.916 Y95.070 E0.20570
G1 X82.451 Y95.070 E0.01681
G1 X86.723 Y99.342 E0.18994
G1 X86.904 Y98.988 E0.01250
G1 X82.986 Y95.070 E0.17418
G1 X83.520 Y95.070 E0.01681
G1 X87.169 Y98.719 E0.16222
G1 X87.436 Y98.452 E0.01188
G1 X84.055 Y95.070 E0.15033
G1 X84.589 Y95.070 E0.01681
G1 X87.777 Y98.257 E0.14168
G1 X88.131 Y98.077 E0.01250
G1 X85.124 Y95.070 E0.13367
G1 X85.659 Y95.070 E0.01681
G1 X88.571 Y97.982 E0.12946
G1 X89.000 Y97.914 E0.01366
G1 X89.044 Y97.921 E0.00141
G1 X86.193 Y95.070 E0.12673
G1 X86.728 Y95.070 E0.01681
G1 X89.680 Y98.022 E0.13124
G1 X89.799 Y98.041 E0.00377
G1 X90.519 Y98.407 E0.02541
G1 X91.093 Y98.981 E0.02549
G1 X91.192 Y99.176 E0.00689
G1 X91.345 Y99.152 E0.00486
G1 X87.263 Y95.070 E0.18147
G1 X87.797 Y95.070 E0.01681
G1 X91.430 Y98.703 E0.16150
G1 X91.430 Y98.168 E0.01681
G1 X88.332 Y95.070 E0.13773
G1 X88.867 Y95.070 E0.01681
G1 X91.430 Y97.633 E0.11396
G1 X91.430 Y97.099 E0.01681
G1 X89.401 Y95.070 E0.09020
G1 X89.936 Y95.070 E0.01681
G1 X91.430 Y96.564 E0.06643
G1 X91.430 Y96.029 E0.01681
G1 X90.471 Y95.070 E0.04266
G1 X91.005 Y95.070 E0.01681
G1 X91.600 Y95.665 E0.02644
M204 S1250
G1 E-2.24000 F2400.00000
G1 F7200.000
G1 X91.005 Y95.070 E-0.26630
G1 X90.471 Y95.070 E-0.16930
G1 X91.430 Y96.029 E-0.42974
G1 X91.430 Y96.177 E-0.04665
G1 E-0.04800 F2400.00000
G1 Z0.400 F9000.000
G1 X121.201 Y100.500
G1 Z0.200
G1 E3.20000 F1500.00000
M204 S800
G1 F1200.000
G1 X121.313 Y99.790 E0.02252
G1 X121.639 Y99.149 E0.02257
G1 X122.149 Y98.639 E0.02261
G1 X122.790 Y98.313 E0.02254
G1 X123.500 Y98.200 E0.02255
G1 X124.210 Y98.313 E0.02255
G1 X124.851 Y98.639 E0.02254
G1 X125.361 Y99.149 E0.02261
G1 X125.687 Y99.790 E0.02254
G1 X125.800 Y100.500 E0.02255
G1 X125.687 Y101.210 E0.02255
G1 X125.361 Y101.851 E0.02254
G1 X124.851 Y102.361 E0.02261
G1 X124.210 Y102.687 E0.02254
G1 X123.500 Y102.800 E0.02255
G1 X122.790 Y102.687 E0.02255
G1 X122.149 Y102.361 E0.02254
G1 X121.639 Y101.851 E0.02261
G1 X121.313 Y101.210 E0.02257
G1 X121.211 Y100.559 E0.02064
M204 S1250
G1 X121.583 Y100.501 F9000.000
M204 S800
G1 F1200.000
G1 X121.676 Y99.908 E0.01881
G1 X121.948 Y99.373 E0.01882
G1 X122.373 Y98.948 E0.01885
