; generated by PrusaSlicer 2.2.0+ on 2020-11-15 at 14:45:42 UTC


;
;

;
;
; 

; external perimeters extrusion width = 0.45mm
; perimeters extrusion width = 0.45mm
; infill extrusion width = 0.45mm
; solid infill extrusion width = 0.45mm
; top infill extrusion width = 0.40mm
; first layer extrusion width = 0.42mm

M73 P0 R66
M201 X1250 Y1250 Z400 E5000 ; sets maximum accelerations, mm/sec^2
M203 X180 Y180 Z12 E80 ; sets maximum feedrates, mm/sec
M204 P1250 R1250 T1250 ; sets acceleration (P, T) and retract acceleration (R), mm/sec^2
M205 X8.00 Y8.00 Z2.00 E10.00 ; sets the jerk limits, mm/sec
M205 S0 T0 ; sets the minimum extruding and travel feed rate, mm/sec
M107
G90 ; use absolute coordinates
M83 ; extruder relative mode
M104 S170 ; set extruder temp for bed leveling
M140 S85 ; set bed temp
M109 R170 ; wait for bed leveling temp
M190 S85 ; wait for bed temp
G28 ; home all without mesh bed level
G29 ; mesh bed leveling 
M104 S240 ; set extruder temp
G92 E0.0
G1 Y-2.0 X179 F2400
G1 Z3 F720
M109 S240 ; wait for extruder temp

; intro line
G1 X170 F1000
G1 Z0.2 F720
G1 X110.0 E8.0 F900
M73 P0 R66
G1 X40.0 E10.0 F700
G92 E0.0

M221 S95 ; set flow
G21 ; set units to millimeters
G90 ; use absolute coordinates
M83 ; use relative distances for extrusion
M900 K0.2 ; Filament gcode
;BEFORE_LAYER_CHANGE
G92 E0.0
;0.2


G1 Z0.200 F9000.000
;AFTER_LAYER_CHANGE
;0.2
G1 E-3.20000 F2400.00000
G1 Z0.400 F9000.000
G1 X73.995 Y72.096
G1 Z0.200
G1 E3.20000 F1500.00000
M204 S800
G1 F1200.000
G1 X74.938 Y71.874 E0.03036
G1 X105.004 Y71.873 E0.94269
G1 X105.885 Y72.044 E0.02813
G1 X106.640 Y72.529 E0.02813
G1 X107.161 Y73.259 E0.02813
G1 X107.374 Y74.131 E0.02813
G1 X107.377 Y105.792 E0.99271
G1 X107.216 Y106.610 E0.02614
G1 X106.780 Y107.325 E0.02626
G1 X106.413 Y107.661 E0.01562
G1 X105.984 Y107.914 E0.01562
G1 X105.511 Y108.071 E0.01562
G1 X105.016 Y108.127 E0.01562
G1 X74.954 Y108.127 E0.94257
G1 X74.137 Y107.965 E0.02614
G1 X73.425 Y107.530 E0.02614
G1 X73.089 Y107.163 E0.01562
G1 X72.836 Y106.734 E0.01562
G1 X72.679 Y106.261 E0.01562
G1 X72.623 Y105.763 E0.01574
G1 X72.623 Y74.208 E0.98937
G1 X72.784 Y73.390 E0.02614
G1 X73.220 Y72.675 E0.02626
G1 X73.947 Y72.132 E0.02848
M204 S1250
G1 E-2.24000 F2400.00000
G1 F7200.000
G1 X74.938 Y71.874 E-0.32414
G1 X76.794 Y71.874 E-0.58786
G1 E-0.04800 F2400.00000
G1 Z0.400 F9000.000
G1 X101.853 Y97.917
G1 Z0.200
G1 E3.20000 F1500.00000
M204 S800
G1 F1200.000
G1 X102.167 Y97.603 E0.01392
G1 X102.562 Y97.402 E0.01389
G1 X103.001 Y97.333 E0.01392
G1 X103.440 Y97.405 E0.01396
G1 X103.833 Y97.616 E0.01398
G1 X104.134 Y97.949 E0.01409
G1 X104.280 Y98.355 E0.01352
G1 X104.315 Y98.750 E0.01243
G1 X104.280 Y99.145 E0.01243
G1 X104.134 Y99.551 E0.01352
G1 X103.833 Y99.884 E0.01409
G1 X103.441 Y100.094 E0.01396
G1 X103.001 Y100.168 E0.01399
G1 X102.561 Y100.098 E0.01395
G1 X102.167 Y99.897 E0.01387
G1 X101.853 Y99.583 E0.01392
G1 X101.652 Y99.188 E0.01389
G1 X101.583 Y98.750 E0.01391
G1 X101.652 Y98.312 E0.01391
G1 X101.826 Y97.971 E0.01201
M204 S1250
G1 X101.690 Y97.552 F9000.000
G1 E-2.24000 F2400.00000
G1 F7200.000
G1 X102.167 Y97.603 E-0.15879
G1 X102.562 Y97.402 E-0.14032
G1 X103.001 Y97.333 E-0.14061
G1 X103.440 Y97.405 E-0.14102
G1 X103.833 Y97.616 E-0.14117
G1 X104.134 Y97.949 E-0.14230
G1 X104.185 Y98.092 E-0.04779
G1 E-0.04800 F2400.00000
G1 Z0.400 F9000.000
G1 X93.787 Y101.537
G1 Z0.200
G1 E3.20000 F1500.00000
M204 S800
G1 F1200.000
G1 X93.787 Y95.463 E0.19045
G1 X88.978 Y95.463 E0.15078
G1 X88.539 Y95.047 E0.01895
G1 X88.162 Y94.767 E0.01473
G1 X87.759 Y94.525 E0.01475
G1 X87.333 Y94.324 E0.01474
G1 X86.891 Y94.166 E0.01473
G1 X86.435 Y94.051 E0.01476
G1 X85.969 Y93.983 E0.01475
G1 X85.500 Y93.959 E0.01473
G1 X85.031 Y93.983 E0.01474
G1 X84.566 Y94.051 E0.01474
G1 X84.109 Y94.166 E0.01476
G1 X83.667 Y94.324 E0.01473
G1 X83.241 Y94.525 E0.01475
G1 X82.838 Y94.767 E0.01474
G1 X82.461 Y95.047 E0.01474
G1 X82.022 Y95.463 E0.01895
G1 X75.787 Y95.463 E0.19549
G1 X75.787 Y92.037 E0.10741
G1 X104.213 Y92.037 E0.89127
G1 X104.213 Y96.254 E0.13223
G1 X104.231 Y97.494 E0.03888
G1 X104.069 Y97.315 E0.00759
G1 X103.563 Y97.043 E0.01800
G1 X103.002 Y96.952 E0.01783
G1 X102.444 Y97.039 E0.01769
G1 X101.943 Y97.294 E0.01765
G1 X101.544 Y97.693 E0.01767
G1 X101.289 Y98.194 E0.01764
G1 X101.201 Y98.750 E0.01765
G1 X101.289 Y99.306 E0.01765
G1 X101.544 Y99.807 E0.01764
G1 X101.943 Y100.206 E0.01767
G1 X102.443 Y100.461 E0.01761
G1 X103.002 Y100.550 E0.01774
G1 X103.564 Y100.456 E0.01787
G1 X104.069 Y100.185 E0.01796
G1 X104.225 Y100.013 E0.00729
G1 X104.213 Y104.963 E0.15521
G1 X75.787 Y104.963 E0.89128
G1 X75.787 Y101.537 E0.10741
G1 X81.619 Y101.537 E0.18286
G1 X81.792 Y101.783 E0.00943
G1 X82.113 Y102.137 E0.01498
G1 X82.461 Y102.453 E0.01473
G1 X82.832 Y102.729 E0.01452
G1 X83.241 Y102.975 E0.01495
G1 X83.667 Y103.176 E0.01476
G1 X84.109 Y103.334 E0.01473
G1 X84.565 Y103.449 E0.01475
G1 X85.032 Y103.517 E0.01478
G1 X85.500 Y103.540 E0.01469
G1 X85.962 Y103.518 E0.01450
G1 X86.434 Y103.449 E0.01497
G1 X86.891 Y103.334 E0.01477
G1 X87.327 Y103.178 E0.01451
G1 X87.759 Y102.975 E0.01496
G1 X88.168 Y102.729 E0.01496
G1 X88.539 Y102.453 E0.01452
G1 X88.887 Y102.137 E0.01473
G1 X89.208 Y101.783 E0.01498
G1 X89.381 Y101.537 E0.00943
G1 X93.727 Y101.537 E0.13627
M204 S1250
G1 X93.410 Y101.160 F9000.000
M204 S800
G1 F1200.000
G1 X93.410 Y95.840 E0.16680
G1 X88.811 Y95.840 E0.14420
G1 X88.620 Y95.630 E0.00890
G1 X88.300 Y95.339 E0.01357
G1 X87.952 Y95.081 E0.01357
G1 X87.581 Y94.858 E0.01359
G1 X87.189 Y94.673 E0.01358
G1 X86.781 Y94.527 E0.01358
G1 X86.361 Y94.421 E0.01359
G1 X85.932 Y94.359 E0.01359
G1 X85.500 Y94.336 E0.01357
G1 X85.068 Y94.359 E0.01357
G1 X84.639 Y94.421 E0.01358
G1 X84.219 Y94.527 E0.01359
G1 X83.811 Y94.673 E0.01357
G1 X83.419 Y94.858 E0.01358
G1 X83.048 Y95.081 E0.01358
G1 X82.700 Y95.339 E0.01358
G1 X82.380 Y95.630 E0.01357
G1 X82.189 Y95.840 E0.00890
G1 X75.410 Y95.840 E0.21255
G1 X75.410 Y91.660 E0.13106
G1 X104.590 Y91.660 E0.91492
G1 X104.590 Y96.252 E0.14396
G1 X104.612 Y97.760 E0.04729
G1 X104.689 Y98.750 E0.03114
G1 X104.612 Y99.738 E0.03107
G1 X104.594 Y100.246 E0.01594
G1 X104.590 Y105.340 E0.15972
G1 X75.410 Y105.340 E0.91492
G1 X75.410 Y101.160 E0.13106
G1 X81.815 Y101.160 E0.20083
G1 X82.087 Y101.547 E0.01484
G1 X82.380 Y101.870 E0.01366
G1 X82.700 Y102.161 E0.01357
G1 X83.043 Y102.415 E0.01337
G1 X83.419 Y102.642 E0.01378
G1 X83.811 Y102.827 E0.01359
G1 X84.219 Y102.973 E0.01357
G1 X84.639 Y103.079 E0.01359
G1 X85.068 Y103.142 E0.01360
G1 X85.500 Y103.162 E0.01354
G1 X85.925 Y103.142 E0.01336
G1 X86.361 Y103.079 E0.01380
G1 X86.781 Y102.973 E0.01359
G1 X87.183 Y102.830 E0.01337
G1 X87.581 Y102.642 E0.01379
G1 X87.957 Y102.415 E0.01379
G1 X88.300 Y102.161 E0.01337
G1 X88.620 Y101.870 E0.01357
G1 X88.913 Y101.547 E0.01366
G1 X89.185 Y101.160 E0.01484
G1 X93.350 Y101.160 E0.13060
M204 S1250
G1 X93.810 Y101.149 F9000.000
G1 E-2.24000 F2400.00000
G1 F7200.000
G1 X93.382 Y98.280 E-0.91200
G1 E-0.04800 F2400.00000
G1 Z0.400 F9000.000
G1 X93.589 Y95.350
G1 Z0.200
G1 E3.20000 F1500.00000
M204 S800
G1 F1200.000
G1 X90.559 Y92.320 E0.13583
G1 X90.020 Y92.320 E0.01709
G1 X92.880 Y95.180 E0.12822
G1 X92.341 Y95.180 E0.01709
G1 X89.481 Y92.320 E0.12822
G1 X88.942 Y92.320 E0.01709
G1 X91.802 Y95.180 E0.12822
G1 X91.263 Y95.180 E0.01709
G1 X88.403 Y92.320 E0.12822
G1 X87.863 Y92.320 E0.01709
G1 X90.724 Y95.180 E0.12822
G1 X90.185 Y95.180 E0.01709
G1 X87.324 Y92.320 E0.12822
G1 X86.785 Y92.320 E0.01709
G1 X89.645 Y95.180 E0.12822
G1 X89.106 Y95.180 E0.01709
G1 X86.246 Y92.320 E0.12822
G1 X85.707 Y92.320 E0.01709
G1 X87.456 Y94.069 E0.07841
G1 X86.973 Y93.895 E0.01627
G1 X86.665 Y93.818 E0.01006
G1 X85.168 Y92.320 E0.06714
G1 X84.629 Y92.320 E0.01709
G1 X86.012 Y93.703 E0.06202
G1 X85.448 Y93.678 E0.01790
G1 X84.089 Y92.320 E0.06090
G1 X83.550 Y92.320 E0.01709
G1 X84.941 Y93.710 E0.06233
G1 X84.474 Y93.782 E0.01498
G1 X83.011 Y92.320 E0.06557
G1 X82.472 Y92.320 E0.01709
G1 X84.043 Y93.891 E0.07043
G1 X83.644 Y94.032 E0.01340
G1 X81.933 Y92.320 E0.07673
G1 X81.394 Y92.320 E0.01709
G1 X83.272 Y94.198 E0.08419
G1 X82.922 Y94.387 E0.01261
G1 X80.855 Y92.320 E0.09267
G1 X80.315 Y92.320 E0.01709
G1 X82.593 Y94.597 E0.10208
G1 X82.283 Y94.827 E0.01222
G1 X79.776 Y92.320 E0.11238
G1 X79.237 Y92.320 E0.01709
G1 X82.006 Y95.089 E0.12412
G1 X81.909 Y95.180 E0.00422
G1 X81.558 Y95.180 E0.01113
G1 X78.698 Y92.320 E0.12822
G1 X78.159 Y92.320 E0.01709
G1 X81.019 Y95.180 E0.12822
G1 X80.480 Y95.180 E0.01709
G1 X77.620 Y92.320 E0.12822
G1 X77.081 Y92.320 E0.01709
G1 X79.941 Y95.180 E0.12822
G1 X79.402 Y95.180 E0.01709
G1 X76.541 Y92.320 E0.12822
G1 X76.070 Y92.320 E0.01495
G1 X76.070 Y92.387 E0.00214
G1 X78.863 Y95.180 E0.12520
G1 X78.323 Y95.180 E0.01709
G1 X76.070 Y92.927 E0.10103
G1 X76.070 Y93.466 E0.01709
G1 X77.784 Y95.180 E0.07686
G1 X77.245 Y95.180 E0.01709
G1 X76.070 Y94.005 E0.05269
G1 X76.070 Y94.544 E0.01709
G1 X76.706 Y95.180 E0.02852
G1 X76.167 Y95.180 E0.01709
G1 X75.900 Y94.913 E0.01196
M204 S1250
G1 E-2.24000 F2400.00000
G1 F7200.000
G1 X76.167 Y95.180 E-0.11945
G1 X76.706 Y95.180 E-0.17073
G1 X76.070 Y94.544 E-0.28490
G1 X76.070 Y94.005 E-0.17073
G1 X76.441 Y94.376 E-0.16620
G1 E-0.04800 F2400.00000
G1 Z0.400 F9000.000
G1 X76.671 Y104.850
G1 Z0.200
G1 E3.20000 F1500.00000
M204 S800
G1 F1200.000
G1 X76.070 Y104.248 E0.02696
G1 X76.070 Y103.709 E0.01709
G1 X77.041 Y104.680 E0.04352
G1 X77.580 Y104.680 E0.01709
G1 X76.070 Y103.170 E0.06769
G1 X76.070 Y102.631 E0.01709
G1 X78.119 Y104.680 E0.09186
G1 X78.658 Y104.680 E0.01709
G1 X76.070 Y102.092 E0.11603
G1 X76.070 Y101.820 E0.00862
G1 X76.337 Y101.820 E0.00847
G1 X79.197 Y104.680 E0.12822
G1 X79.736 Y104.680 E0.01709
G1 X76.876 Y101.820 E0.12822
G1 X77.415 Y101.820 E0.01709
G1 X80.276 Y104.680 E0.12822
G1 X80.815 Y104.680 E0.01709
G1 X77.954 Y101.820 E0.12822
G1 X78.494 Y101.820 E0.01709
G1 X81.354 Y104.680 E0.12822
G1 X81.893 Y104.680 E0.01709
G1 X79.033 Y101.820 E0.12822
G1 X79.572 Y101.820 E0.01709
G1 X82.432 Y104.680 E0.12822
G1 X82.971 Y104.680 E0.01709
G1 X80.111 Y101.820 E0.12822
G1 X80.650 Y101.820 E0.01709
G1 X83.510 Y104.680 E0.12822
G1 X84.049 Y104.680 E0.01709
G1 X81.189 Y101.820 E0.12822
G1 X81.472 Y101.820 E0.00896
G1 X81.570 Y101.960 E0.00543
G1 X81.913 Y102.337 E0.01614
G1 X82.281 Y102.672 E0.01577
G1 X82.675 Y102.964 E0.01556
G1 X83.156 Y103.247 E0.01768
G1 X84.589 Y104.680 E0.06424
G1 X85.128 Y104.680 E0.01709
G1 X84.061 Y103.614 E0.04781
G1 X84.510 Y103.727 E0.01468
G1 X84.748 Y103.762 E0.00763
G1 X85.667 Y104.680 E0.04118
G1 X86.206 Y104.680 E0.01709
G1 X85.341 Y103.815 E0.03876
G1 X85.870 Y103.805 E0.01677
G1 X86.745 Y104.680 E0.03922
G1 X87.284 Y104.680 E0.01709
G1 X86.351 Y103.747 E0.04184
G1 X86.793 Y103.650 E0.01436
G1 X87.823 Y104.680 E0.04617
G1 X88.363 Y104.680 E0.01709
G1 X87.205 Y103.522 E0.05191
G1 X87.589 Y103.367 E0.01313
G1 X88.902 Y104.680 E0.05885
G1 X89.441 Y104.680 E0.01709
G1 X87.950 Y103.190 E0.06682
G1 X88.287 Y102.987 E0.01245
G1 X89.980 Y104.680 E0.07590
G1 X90.519 Y104.680 E0.01709
G1 X88.599 Y102.760 E0.08606
G1 X88.892 Y102.514 E0.01213
G1 X91.058 Y104.680 E0.09709
G1 X91.597 Y104.680 E0.01709
G1 X89.167 Y102.250 E0.10896
G1 X89.423 Y101.967 E0.01210
G1 X92.137 Y104.680 E0.12163
G1 X92.676 Y104.680 E0.01709
G1 X89.815 Y101.820 E0.12822
G1 X90.355 Y101.820 E0.01709
G1 X93.215 Y104.680 E0.12822
G1 X93.754 Y104.680 E0.01709
G1 X90.894 Y101.820 E0.12822
G1 X91.433 Y101.820 E0.01709
G1 X94.293 Y104.680 E0.12822
G1 X94.832 Y104.680 E0.01709
G1 X91.972 Y101.820 E0.12822
G1 X92.511 Y101.820 E0.01709
G1 X95.371 Y104.680 E0.12822
G1 X95.911 Y104.680 E0.01709
G1 X93.050 Y101.820 E0.12822
G1 X93.589 Y101.820 E0.01709
G1 X96.450 Y104.680 E0.12822
G1 X96.989 Y104.680 E0.01709
G1 X94.070 Y101.761 E0.13086
G1 X94.070 Y101.222 E0.01709
G1 X97.528 Y104.680 E0.15503
G1 X98.067 Y104.680 E0.01709
G1 X94.070 Y100.683 E0.17919
G1 X94.070 Y100.144 E0.01709
G1 X98.606 Y104.680 E0.20336
G1 X99.145 Y104.680 E0.01709
G1 X94.070 Y99.605 E0.22753
G1 X94.070 Y99.065 E0.01709
G1 X99.685 Y104.680 E0.25170
G1 X100.224 Y104.680 E0.01709
G1 X94.070 Y98.526 E0.27587
G1 X94.070 Y97.987 E0.01709
G1 X100.763 Y104.680 E0.30004
G1 X101.302 Y104.680 E0.01709
G1 X94.070 Y97.448 E0.32421
G1 X94.070 Y96.909 E0.01709
G1 X101.841 Y104.680 E0.34838
G1 X102.380 Y104.680 E0.01709
G1 X94.070 Y96.370 E0.37255
G1 X94.070 Y95.831 E0.01709
G1 X102.919 Y104.680 E0.39672
G1 X103.458 Y104.680 E0.01709
G1 X91.098 Y92.320 E0.55411
G1 X91.637 Y92.320 E0.01709
G1 X103.931 Y104.614 E0.55113
G1 X103.933 Y104.076 E0.01705
G1 X92.177 Y92.320 E0.52702
G1 X92.716 Y92.320 E0.01709
G1 X103.934 Y103.538 E0.50291
G1 X103.935 Y103.000 E0.01705
G1 X93.255 Y92.320 E0.47880
G1 X93.794 Y92.320 E0.01709
G1 X104.106 Y102.632 E0.46227
M204 S1250
G1 E-2.24000 F2400.00000
G1 F7200.000
G1 X102.069 Y100.595 E-0.91200
G1 E-0.04800 F2400.00000
G1 Z0.400 F9000.000
G1 X104.353 Y97.940
G1 Z0.200
G1 E3.20000 F1500.00000
M204 S800
G1 F1200.000
G1 X104.404 Y98.026 E0.00065
G1 X104.432 Y98.156 E0.00088
M204 S1250
G1 E-2.24000 F2400.00000
G1 F7200.000
G1 X104.404 Y98.026 E-0.04225
G1 X104.353 Y97.940 E-0.03146
G1 E-0.88629 F2400.00000
G1 Z0.400 F9000.000
G1 X104.432 Y99.344
G1 Z0.200
G1 E3.20000 F1500.00000
M204 S800
G1 F1200.000
G1 X104.404 Y99.474 E0.00088
G1 X104.353 Y99.560 E0.00065
M204 S1250
G1 E-2.24000 F2400.00000
G1 F7200.000
G1 X104.404 Y99.474 E-0.03146
G1 X104.432 Y99.344 E-0.04225
G1 E-0.88629 F2400.00000
G1 Z0.400 F9000.000
G1 X104.109 Y101.018
G1 Z0.200
G1 E3.20000 F1500.00000
M204 S800
G1 F1200.000
G1 X103.762 Y100.671 E0.01556
G1 X103.657 Y100.727 E0.00379
G1 X103.334 Y100.781 E0.01039
G1 X103.939 Y101.387 E0.02713
G1 X103.938 Y101.924 E0.01705
G1 X102.616 Y100.603 E0.05925
M204 S1250
G1 E-2.24000 F2400.00000
G1 F7200.000
G1 X103.938 Y101.924 E-0.59194
G1 X103.939 Y101.387 E-0.17033
G1 X103.605 Y101.052 E-0.14974
G1 E-0.04800 F2400.00000
G1 Z0.400 F9000.000
G1 X101.147 Y99.134
G1 Z0.200
G1 E3.20000 F1500.00000
M204 S800
G1 F1200.000
G1 X94.333 Y92.320 E0.30548
G1 X94.872 Y92.320 E0.01709
G1 X100.968 Y98.415 E0.27326
G1 X101.017 Y98.106 E0.00994
G1 X101.078 Y97.986 E0.00425
G1 X95.411 Y92.320 E0.25401
G1 X95.950 Y92.320 E0.01709
G1 X101.259 Y97.629 E0.23800
G1 X101.312 Y97.524 E0.00371
G1 X101.503 Y97.334 E0.00856
G1 X96.490 Y92.320 E0.22476
G1 X97.029 Y92.320 E0.01709
G1 X101.773 Y97.064 E0.21268
G1 X102.130 Y96.882 E0.01270
G1 X97.568 Y92.320 E0.20451
G1 X98.107 Y92.320 E0.01709
G1 X102.527 Y96.740 E0.19814
G1 X102.993 Y96.667 E0.01495
G1 X98.646 Y92.320 E0.19487
G1 X99.185 Y92.320 E0.01709
G1 X103.634 Y96.768 E0.19942
G1 X103.940 Y96.925 E0.01090
G1 X103.934 Y96.530 E0.01253
G1 X99.724 Y92.320 E0.18872
M73 P1 R65
G1 X100.264 Y92.320 E0.01709
G1 X103.930 Y95.986 E0.16437
G1 X103.930 Y95.447 E0.01709
G1 X100.803 Y92.320 E0.14020
G1 X101.342 Y92.320 E0.01709
G1 X103.930 Y94.908 E0.11603
G1 X103.930 Y94.369 E0.01709
G1 X101.881 Y92.320 E0.09186
G1 X102.420 Y92.320 E0.01709
G1 X103.930 Y93.830 E0.06769
G1 X103.930 Y93.291 E0.01709
G1 X102.959 Y92.320 E0.04352
G1 X103.498 Y92.320 E0.01709
G1 X104.100 Y92.921 E0.02696
M204 S1250
G1 E-2.24000 F2400.00000
G1 F7200.000
G1 X103.498 Y92.320 E-0.26932
G1 X102.959 Y92.320 E-0.17073
G1 X103.930 Y93.291 E-0.43478
G1 X103.930 Y93.408 E-0.03717
G1 E-0.04800 F2400.00000
G1 Z0.400 F9000.000
G1 X103.001 Y83.168
G1 Z0.200
G1 E3.20000 F1500.00000
M204 S800
G1 F1200.000
G1 X102.561 Y83.098 E0.01395
G1 X102.167 Y82.897 E0.01387
G1 X101.853 Y82.583 E0.01392
G1 X101.652 Y82.188 E0.01389
G1 X101.583 Y81.750 E0.01391
G1 X101.652 Y81.312 E0.01391
G1 X101.853 Y80.917 E0.01389
G1 X102.167 Y80.603 E0.01392
G1 X102.562 Y80.402 E0.01389
G1 X103.001 Y80.333 E0.01392
G1 X103.440 Y80.405 E0.01396
G1 X103.833 Y80.616 E0.01398
G1 X104.134 Y80.949 E0.01409
G1 X104.280 Y81.355 E0.01352
G1 X104.315 Y81.750 E0.01243
G1 X104.280 Y82.145 E0.01243
G1 X104.134 Y82.551 E0.01352
G1 X103.833 Y82.884 E0.01409
G1 X103.441 Y83.094 E0.01396
G1 X103.060 Y83.158 E0.01211
M204 S1250
G1 X102.802 Y83.515 F9000.000
G1 E-2.24000 F2400.00000
G1 F7200.000
